X: 236
T: The Vauxhall Gipsey
%R: jig
Z: 2014 John Chambers <jc:trillian.mit.edu>
B: Preston "Twenty four Country Dances for the Year 1794" p.98 #2
F: http://www.vwml.org/browse/browse-collections-dance-tune-books/browse-prestons1794# 2014-8-10
M: 6/8
L: 1/8
K: G
|:\
BcB ded | gag fed | efg dcB | ABG FED |\
BcB ded | gag fed | eag fdf | g3 G3 :|
|:\
AFA BGB | cAG FED | BGB cAc | dgf edc |\
BcB ded | gag fed | eag fdf | g3 G3 :|
% - - - - - - - - - - - - - - - - - - - - - - - - -
%%begintext align
%% Change sides & back again .|
%% Right hands across, left hands back again :|
%% Lead down the middle up again & cast off :|.
%% Hands 6 round :|:
%%endtext
% - - - - - - - - - - - - - - - - - - - - - - - - -

%%sep 1 1 500
%%sep 1 1 500
